src/assets/outline/ShieldTick.svg

<svg width="24" height="24" viewBox="0 0 24 24"  xmlns="http://www.w3.org/2000/svg">
<path d="M11.9999 22.7599C10.9099 22.7599 9.8299 22.4399 8.9799 21.8099L4.6799 18.5999C3.5399 17.7499 2.6499 15.9699 2.6499 14.5599V7.11994C2.6499 5.57994 3.7799 3.93994 5.2299 3.39994L10.2199 1.52994C11.2099 1.15994 12.7699 1.15994 13.7599 1.52994L18.7499 3.39994C20.1999 3.93994 21.3299 5.57994 21.3299 7.11994V14.5499C21.3299 15.9699 20.4399 17.7399 19.2999 18.5899L14.9999 21.7999C14.1699 22.4399 13.0899 22.7599 11.9999 22.7599ZM10.7499 2.93994L5.7599 4.80994C4.9099 5.12994 4.1599 6.20994 4.1599 7.12994V14.5599C4.1599 15.5099 4.8299 16.8399 5.5799 17.3999L9.8799 20.6099C11.0299 21.4699 12.9699 21.4699 14.1299 20.6099L18.4299 17.3999C19.1899 16.8299 19.8499 15.5099 19.8499 14.5599V7.11994C19.8499 6.20994 19.0999 5.12994 18.2499 4.79994L13.2599 2.92994C12.5799 2.68994 11.4199 2.68994 10.7499 2.93994Z" />
<path d="M10.6602 14.2301C10.4702 14.2301 10.2802 14.1601 10.1302 14.0101L8.52023 12.4001C8.23023 12.1101 8.23023 11.6301 8.52023 11.3401C8.81023 11.0501 9.29023 11.0501 9.58023 11.3401L10.6602 12.4201L14.4302 8.65012C14.7202 8.36012 15.2002 8.36012 15.4902 8.65012C15.7802 8.94012 15.7802 9.42012 15.4902 9.71012L11.1902 14.0101C11.0402 14.1601 10.8502 14.2301 10.6602 14.2301Z" />
</svg>

<?xml version="1.0" encoding="UTF-8"?>
<svg width="24" height="24" viewBox="0 0 24 24" xmlns="http://www.w3.org/2000/svg">
 <path d="m12 22.76c-1.09 0-2.17-0.32-3.02-0.95l-4.3-3.21c-1.14-0.85-2.03-2.63-2.03-4.04v-7.44c0-1.54 1.13-3.18 2.58-3.72l4.99-1.87c0.99-0.37 2.55-0.37 3.54 0l4.99 1.87c1.45 0.54 2.58 2.18 2.58 3.72v7.43c0 1.42-0.89 3.19-2.03 4.04l-4.3 3.21c-0.83 0.64-1.91 0.96-3 0.96zm-1.25-19.82-4.99 1.87c-0.85 0.32-1.6 1.4-1.6 2.32v7.43c0 0.95 0.67 2.28 1.42 2.84l4.3 3.21c1.15 0.86 3.09 0.86 4.25 0l4.3-3.21c0.76-0.57 1.42-1.89 1.42-2.84v-7.44c0-0.91-0.75-1.99-1.6-2.32l-4.99-1.87c-0.68-0.24-1.84-0.24-2.51 0.01z"/>
 <path d="m10.66 14.23c-0.19 0-0.38-0.07-0.53-0.22l-1.61-1.61c-0.29-0.29-0.29-0.77 0-1.06s0.77-0.29 1.06 0l1.08 1.08 3.77-3.77c0.29-0.29 0.77-0.29 1.06 0s0.29 0.77 0 1.06l-4.3 4.3c-0.15 0.15-0.34 0.22-0.53 0.22z"/>
</svg>
